X: 111
T: REEL: Ballinamore
C: C: Trad.; S: Altan
C: Set Leaders: Anton, Sophie
Z: Anton Zille ed.; slainte at The Session
N: https://thesession.org/members/26966/sets/74251
R: Reel
M: 4/4
L: 1/8
Q: 1/2=100
K: Edor
G2 BG E2 AG|FDFA dAFA|~G2 BG EFGA|BdAF GE~E2|
EGBG EFGE|FDFA dAFA|~G2 BG EFGA|BdAF GE~E2||
eB~B2 efge|fa~a2 bfaf|eB~B2 efge|fedf efgf|
eB~B2 efge|fedf afdf|eB~B2 eB~B2|A/B/c de fdAF||

